X: 41
T: No_133_Moccasin_Game_Song_(b).krn
N: Derived from No_133_Moccasin_Game_Song_(b).krn
%%abc-version 2.0
%%abcx-abcm2ps-target-version 5.9.1 (29 Sep 2008)
%%abc-creator hum2abc beta
%%abcx-conversion-date 2019/03/15 08:35:44
%%humdrum-veritas 1094478972
%%humdrum-veritas-data 3886145383
%%linebreak <none>
%%barnumbers 0
L: 1/8
M: 2/4
K: A clef=bass
[K:clef=bass][M:2/4]z2(3E,E,C | 
B,2EB, | 
A,2E,E, ||  
[M:3/4]E,2E,2(3B,B,B, ||  
[M:2/4]A,2E,E, | 
F,2E,E, ||  
[M:3/4]E,2E, z (3E,E,E, ||  
[M:2/4]A,2A,E, | 
(F,2E,)E, ||  
[M:3/4]E,2E, z (3E,E,E, ||  
[M:2/4]E2EC | 
B,2A,E, ||  
[M:3/4]F,2E,2(3F,F,F, ||  
[M:2/4]A,2A,E, | 
(F,2E,)E, | 
E,2E,2 |]  



